Papirus/16x16/mimetypes/text-x-systemd-unit.svg

<svg width="16" xmlns="http://www.w3.org/2000/svg" version="1.1" height="16">
 <path style="fill:#e4e4e4" d="m2.8008 1c-0.4432 0-0.8008 0.3576-0.8008 0.8008v13.3982c0 0.443 0.3576 0.801 0.8008 0.801h10.3982c0.443 0 0.801-0.358 0.801-0.801v-9.199l-4-1-1-4z"/>
 <path style="fill:#f8f8f0" d="m14 6-5-5v4.1992c0 0.4432 0.358 0.8008 0.801 0.8008z"/>
 <path style="fill:#3f3f3f" d="m5 13v-1h-1v-3h1v-1h-2v5z"/>
 <path style="fill:#3f3f3f" d="m12 12h-1v1h2v-5h-2v1h1z"/>
 <circle style="fill:#05a087" cx="6.5" r="1.5" cy="10.5"/>
 <path style="fill:#05a087" d="m11 9v3l-3-1.5z"/>
</svg>

<svg xmlns="http://www.w3.org/2000/svg" width="16" height="16" version="1.1">
 <path style="fill:#e4e4e4" d="m2.8008 1c-0.4432 0-0.8008 0.3576-0.8008 0.8008v13.3982c0 0.443 0.3576 0.801 0.8008 0.801h10.3982c0.443 0 0.801-0.358 0.801-0.801v-9.199l-4-1-1-4z"/>
 <path style="fill:#f8f8f0" d="m14 6-5-5v4.1992c0 0.4432 0.358 0.8008 0.801 0.8008z"/>
 <path style="fill:#4f4f4f" d="M 12,12 H 11 V 13 H 13 V 8 H 11 V 9 H 12 Z M 5,13 V 12 H 4 V 9 H 5 V 8 H 3 V 13 Z"/>
 <circle style="fill:#05a087" cx="6.5" cy="10.5" r="1.5"/>
 <path style="fill:#05a087" d="m11 9v3l-3-1.5z"/>
</svg>
